barni/images/hero-cloud.svg

<svg width="110" height="83" viewBox="0 0 110 83" fill="none" xmlns="http://www.w3.org/2000/svg">
<g filter="url(#filter0_d_51_444)">
<path d="M87.2492 34.6484C87.021 34.6484 86.7928 34.6484 86.5646 34.6838C85.2879 32.8616 83.6037 31.362 81.6456 30.3041C79.6876 29.2462 77.5097 28.6592 75.2849 28.5895C74.1296 26.1225 72.2948 24.0356 69.9954 22.5733C67.6959 21.111 65.0271 20.3338 62.3016 20.3328C61.8022 20.333 61.3032 20.3593 60.8065 20.4114C59.2748 17.2877 56.8969 14.6561 53.9432 12.8156C50.9894 10.9751 47.5782 9.99964 44.0974 10C40.4116 9.99991 36.8088 11.0936 33.7457 13.1425C30.6827 15.1913 28.2975 18.103 26.8925 21.5084C25.6567 21.7978 24.4656 22.2527 23.3516 22.8609C22.0115 21.161 20.303 19.787 18.3546 18.8424C16.4063 17.8978 14.2689 17.4072 12.1034 17.4075C8.80918 17.4083 5.61562 18.5421 3.0593 20.6185C0.502981 22.6949 -1.26031 25.5873 -1.93433 28.8097C-3.51673 28.5182 -5.13725 28.4982 -6.72635 28.7507C-8.67938 29.0657 -10.5457 29.7826 -12.207 30.856C-13.8683 31.9294 -15.2884 33.336 -16.3773 34.9865C-17.1426 34.7539 -17.9379 34.6347 -18.7379 34.6327C-20.9291 34.6327 -23.0306 35.5026 -24.5801 37.051C-26.1295 38.5995 -27 40.6996 -27 42.8895C-27 45.0793 -26.1295 47.1794 -24.5801 48.7279C-23.0306 50.2763 -20.9291 51.1462 -18.7379 51.1462C-17.9383 51.1431 -17.1433 51.0252 -16.3773 50.7963C-14.8578 53.1027 -12.7035 54.921 -10.1738 56.0322C-7.64421 57.1435 -4.84709 57.5003 -2.11926 57.0596C-0.446289 56.7895 1.16552 56.2251 2.6413 55.3926C4.27433 58.2113 6.62033 60.5513 9.44398 62.1778C12.2676 63.8044 15.4696 64.6603 18.7288 64.6598C21.63 64.6618 24.4912 63.9847 27.0834 62.6826C29.6755 61.3806 31.9264 59.4898 33.6557 57.1619C34.7971 57.7352 36.0568 58.0341 37.3343 58.0347C38.6933 58.0362 40.0315 57.7012 41.2293 57.0596C44.5926 59.938 48.8757 61.5182 53.3037 61.5144C55.9623 61.5161 58.5901 60.9469 61.0094 59.8452C63.4286 58.7436 65.5827 57.1352 67.3257 55.1291C69.581 56.5186 72.1791 57.2525 74.8285 57.2484C77.1321 57.2468 79.4013 56.6894 81.4432 55.6236C83.4851 54.5578 85.2393 53.0151 86.5568 51.1266C86.785 51.1462 87.0131 51.1619 87.2413 51.1619C89.4326 51.1619 91.5341 50.292 93.0835 48.7436C94.633 47.1952 95.5034 45.095 95.5034 42.9052C95.5034 40.7167 94.634 38.6178 93.0863 37.0695C91.5386 35.5213 89.4391 34.6505 87.2492 34.6484Z" fill="white"/>
</g>
<defs>
<filter id="filter0_d_51_444" x="-41" y="0" width="150.503" height="82.6598" filterUnits="userSpaceOnUse" color-interpolation-filters="sRGB">
<feFlood flood-opacity="0" result="BackgroundImageFix"/>
<feColorMatrix in="SourceAlpha" type="matrix" values="0 0 0 0 0 0 0 0 0 0 0 0 0 0 0 0 0 0 127 0" result="hardAlpha"/>
<feOffset dy="4"/>
<feGaussianBlur stdDeviation="7"/>
<feComposite in2="hardAlpha" operator="out"/>
<feColorMatrix type="matrix" values="0 0 0 0 0.247708 0 0 0 0 0.335337 0 0 0 0 0.5125 0 0 0 0.3 0"/>
<feBlend mode="normal" in2="BackgroundImageFix" result="effect1_dropShadow_51_444"/>
<feBlend mode="normal" in="SourceGraphic" in2="effect1_dropShadow_51_444" result="shape"/>
</filter>
</defs>
</svg>

<svg width="110" height="83" fill="none" xmlns="http://www.w3.org/2000/svg"><g filter="url(#a)"><path d="M87.25 34.648c-.229 0-.457 0-.685.036a14.313 14.313 0 0 0-11.28-6.094 14.334 14.334 0 0 0-14.478-8.179 18.615 18.615 0 0 0-27.06-7.269 18.6 18.6 0 0 0-6.855 8.366c-1.235.29-2.426.745-3.54 1.353a14.315 14.315 0 0 0-11.249-5.454A14.35 14.35 0 0 0 3.06 20.62a14.334 14.334 0 0 0-4.993 8.19 14.174 14.174 0 0 0-4.792-.058 14.293 14.293 0 0 0-9.651 6.235 8.188 8.188 0 0 0-2.36-.353c-2.192 0-4.294.87-5.843 2.418a8.254 8.254 0 0 0 8.203 13.745A14.33 14.33 0 0 0-2.12 57.06a14.342 14.342 0 0 0 4.76-1.667A18.58 18.58 0 0 0 18.73 64.66a18.584 18.584 0 0 0 14.927-7.498 8.23 8.23 0 0 0 7.574-.102 18.545 18.545 0 0 0 12.074 4.454 18.565 18.565 0 0 0 14.022-6.385 14.317 14.317 0 0 0 19.231-4.002c.228.02.456.035.684.035 2.192 0 4.293-.87 5.843-2.418a8.254 8.254 0 0 0 .002-11.675 8.265 8.265 0 0 0-5.837-2.42Z" fill="#fff"/></g><defs><filter id="a" x="-41" y="0" width="150.503" height="82.66" filterUnits="userSpaceOnUse" color-interpolation-filters="sRGB"><feFlood flood-opacity="0" result="BackgroundImageFix"/><feColorMatrix in="SourceAlpha" values="0 0 0 0 0 0 0 0 0 0 0 0 0 0 0 0 0 0 127 0" result="hardAlpha"/><feOffset dy="4"/><feGaussianBlur stdDeviation="7"/><feComposite in2="hardAlpha" operator="out"/><feColorMatrix values="0 0 0 0 0.247708 0 0 0 0 0.335337 0 0 0 0 0.5125 0 0 0 0.3 0"/><feBlend in2="BackgroundImageFix" result="effect1_dropShadow_51_444"/><feBlend in="SourceGraphic" in2="effect1_dropShadow_51_444" result="shape"/></filter></defs></svg>
